X:104
T:Primrose Lass, The
R:reel
H:Other versions: #618, #651. In A: #489.
D:Paul McGrattan: The Frost is All Over.
Z:id:hn-reel-104
M:C|
K:G
~B3A ~G3E|DEGA BA~A2|dBBA ~G3E|DEGA BG~G2:|
|:(3Bcd gd edgd|(3Bcd gd BA~A2
|1 (3Bcd gd edgd|B2Ac BG~G2:|2 (3Bcd ef ~g3e|dBAc BG~G2||

